32x32/apps/Thunar.svg

<svg xmlns="http://www.w3.org/2000/svg" width="32" height="32" version="1">
 <rect style="fill:#5895dc" width="16" height="17" x="8" y="1" rx="1.275" ry="1.275"/>
 <rect style="fill:#89e058" width="20" height="17" x="6" y="4" rx="1.275" ry="1.275"/>
 <rect style="fill:#ffcd54" width="24" height="17" x="4" y="7" rx="1.275" ry="1.275"/>
 <rect opacity=".2" width="28" height="20" x="2" y="11" rx="1.5" ry="1.5"/>
 <rect fill="#8e8e8e" width="28" height="20" x="2" y="10" rx="1.5" ry="1.5"/>
 <rect opacity=".2" width="10" height="3" x="11" y="19" rx="1" ry="1"/>
 <rect fill="#ececec" width="10" height="3" x="11" y="18" rx="1" ry="1"/>
 <path style="fill:#f4f4f7;opacity:0.1" d="M 9.2753906 1 C 8.5690406 1 8 1.5690406 8 2.2753906 L 8 3.2753906 C 8 2.5690406 8.5690406 2 9.2753906 2 L 22.724609 2 C 23.430959 2 24 2.5690406 24 3.2753906 L 24 2.2753906 C 24 1.5690406 23.430959 1 22.724609 1 L 9.2753906 1 z"/>
 <path style="fill:#f4f4f7;opacity:0.1" d="M 7.2753906 4 C 6.5690406 4 6 4.5690406 6 5.2753906 L 6 6.2753906 C 6 5.5690406 6.5690406 5 7.2753906 5 L 24.724609 5 C 25.430959 5 26 5.5690406 26 6.2753906 L 26 5.2753906 C 26 4.5690406 25.430959 4 24.724609 4 L 7.2753906 4 z"/>
 <path style="fill:#f4f4f7;opacity:0.1" d="M 5.2753906 7 C 4.5690406 7 4 7.5690406 4 8.2753906 L 4 9.2753906 C 4 8.5690406 4.5690406 8 5.2753906 8 L 26.724609 8 C 27.430959 8 28 8.5690406 28 9.2753906 L 28 8.2753906 C 28 7.5690406 27.430959 7 26.724609 7 L 5.2753906 7 z"/>
 <path style="opacity:0.1" d="M 7.2753906,2.9996094 C 6.5690406,2.9996094 6,3.56865 6,4.275 v 1 C 6,4.56865 6.5690406,3.9996094 7.2753906,3.9996094 H 24.724609 C 25.430959,3.9996094 26,4.56865 26,5.275 v -1 C 26,3.56865 25.430959,2.9996094 24.724609,2.9996094 Z"/>
 <path style="opacity:0.1" d="M 5.2753906,5.9996094 C 4.5690406,5.9996094 4,6.56865 4,7.275 v 1 C 4,7.56865 4.5690406,6.9996094 5.2753906,6.9996094 H 26.724609 C 27.430959,6.9996094 28,7.56865 28,8.275 v -1 C 28,6.56865 27.430959,5.9996094 26.724609,5.9996094 Z"/>
</svg>

<svg xmlns="http://www.w3.org/2000/svg" width="32" height="32" version="1"><rect style="fill:#5895dc" width="16" height="17" x="8" y="1" rx="1.275" ry="1.275"/><rect style="fill:#89e058" width="20" height="17" x="6" y="4" rx="1.275" ry="1.275"/><rect style="fill:#ffcd54" width="24" height="17" x="4" y="7" rx="1.275" ry="1.275"/><rect opacity=".2" width="28" height="20" x="2" y="11" rx="1.5" ry="1.5"/><rect fill="#8e8e8e" width="28" height="20" x="2" y="10" rx="1.5" ry="1.5"/><rect opacity=".2" width="10" height="3" x="11" y="19" rx="1" ry="1"/><rect fill="#ececec" width="10" height="3" x="11" y="18" rx="1" ry="1"/><path style="fill:#f4f4f7;opacity:.1" d="M9.275 1C8.57 1 8 1.569 8 2.275v1C8 2.57 8.569 2 9.275 2h13.45C23.43 2 24 2.569 24 3.275v-1C24 1.57 23.431 1 22.725 1H9.275zM7.275 4C6.57 4 6 4.569 6 5.275v1C6 5.57 6.569 5 7.275 5h17.45C25.43 5 26 5.569 26 6.275v-1C26 4.57 25.431 4 24.725 4H7.275zM5.275 7C4.57 7 4 7.569 4 8.275v1C4 8.57 4.569 8 5.275 8h21.45C27.43 8 28 8.569 28 9.275v-1C28 7.57 27.431 7 26.725 7H5.275z"/><path style="opacity:.1" d="M7.275 3C6.57 3 6 3.569 6 4.275v1C6 4.569 6.569 4 7.275 4h17.45C25.43 4 26 4.569 26 5.275v-1C26 3.569 25.431 3 24.725 3zM5.275 6C4.57 6 4 6.569 4 7.275v1C4 7.569 4.569 7 5.275 7h21.45C27.43 7 28 7.569 28 8.275v-1C28 6.569 27.431 6 26.725 6z"/></svg>
